icons/reactquery-light.svg

<svg width="256" height="256" viewBox="0 0 256 256" fill="none" xmlns="http://www.w3.org/2000/svg">
<rect width="256" height="256" rx="50" fill="#F4F2ED"/>
<path d="M153.998 156.283L149.74 163.72C148.457 165.961 146.082 167.341 143.512 167.341H110.891C108.32 167.341 105.946 165.961 104.663 163.72L100.404 156.283H153.998ZM165.92 135.462L158.411 148.575H95.9913L88.4832 135.462H165.92ZM158.687 115.102L165.932 127.755H88.4712L95.7158 115.102H158.687ZM143.512 95.8554C146.082 95.8554 148.457 97.2362 149.74 99.4767L154.274 107.395H100.129L104.663 99.4767C105.946 97.2362 108.32 95.8554 110.891 95.8554H143.512Z" fill="#00435B"/>
<path d="M63.4143 92.4043C59.8007 74.7799 59.0252 61.2621 61.361 51.4463C62.7502 45.6084 65.29 40.846 69.152 37.41C73.2293 33.7824 78.3842 32.0024 84.1763 32.0024C93.7316 32.0024 103.777 36.3851 114.511 44.7111C118.89 48.1071 123.434 52.2005 128.154 56.9935C128.529 56.5071 128.954 56.0483 129.427 55.6243C142.77 43.6647 154.003 36.234 163.612 33.369C169.325 31.6655 174.688 31.5032 179.573 33.1565C184.729 34.9017 188.837 38.5094 191.735 43.5625C196.519 51.902 197.78 62.8601 195.997 76.3906C195.27 81.9058 194.027 87.9134 192.271 94.4227C192.934 94.5032 193.598 94.6509 194.255 94.87C211.184 100.513 223.172 106.581 230.43 113.516C234.748 117.642 237.567 122.235 238.587 127.32C239.663 132.687 238.614 138.07 235.719 143.119C230.944 151.447 222.165 158.014 209.658 163.217C204.636 165.305 198.954 167.197 192.606 168.899C192.895 169.556 193.12 170.255 193.27 170.988C196.884 188.612 197.66 202.13 195.324 211.946C193.935 217.784 191.395 222.546 187.533 225.982C183.456 229.61 178.301 231.39 172.508 231.39C162.953 231.39 152.908 227.007 142.173 218.681C137.748 215.249 133.154 211.105 128.38 206.245C127.889 207.018 127.286 207.736 126.573 208.376C113.23 220.335 101.997 227.766 92.3884 230.631C86.6754 232.335 81.3116 232.497 76.4271 230.843C71.2713 229.098 67.163 225.491 64.2646 220.438C59.4811 212.098 58.2197 201.14 60.003 187.609C60.7562 181.895 62.0632 175.652 63.921 168.869C63.1948 168.795 62.4657 168.641 61.7446 168.401C44.8155 162.758 32.8279 156.69 25.5703 149.755C21.2523 145.629 18.4325 141.036 17.4132 135.951C16.3373 130.584 17.3864 125.201 20.2815 120.151C25.056 111.824 33.835 105.256 46.3419 100.054C51.5134 97.9031 57.385 95.961 63.9634 94.2206C63.7291 93.6434 63.544 93.0366 63.4143 92.4043Z" fill="#002B3B"/>
<path d="M181.46 172.721C183.143 172.42 184.756 173.506 185.132 175.171L185.152 175.27L185.332 176.207C191.15 206.977 187.052 222.361 173.035 222.361C159.322 222.361 141.864 209.234 120.664 182.978C120.195 182.398 119.942 181.671 119.949 180.924C119.964 179.183 121.353 177.778 123.072 177.74L123.171 177.74L124.288 177.747C133.209 177.796 141.882 177.483 150.306 176.809C160.251 176.013 170.635 174.65 181.46 172.721ZM85.2008 149.462L85.2545 149.553L85.8147 150.536C90.304 158.387 94.9812 165.837 99.8464 172.889C105.576 181.193 112.019 189.6 119.176 198.109C120.283 199.426 120.157 201.38 118.908 202.542L118.827 202.615L118.107 203.238C94.4271 223.646 79.0364 227.72 71.9344 215.46C64.9827 203.46 67.5031 181.64 79.4956 150.001C79.7592 149.306 80.2544 148.724 80.8969 148.355C82.3984 147.493 84.3021 147.991 85.2008 149.462ZM193.476 104.058L193.573 104.09L194.464 104.4C223.692 114.626 234.797 125.865 227.778 138.116C220.913 150.097 200.956 158.821 167.906 164.286C167.169 164.408 166.413 164.266 165.769 163.886C164.248 162.986 163.74 161.017 164.634 159.488C169.368 151.389 173.631 143.33 177.424 135.312C181.726 126.219 185.763 116.458 189.535 106.031C190.107 104.45 191.787 103.591 193.378 104.03L193.476 104.058ZM90.231 98.9094C91.7518 99.8087 92.2598 101.778 91.3658 103.307C86.6322 111.406 82.3689 119.465 78.5759 127.483C74.2742 136.576 70.2373 146.337 66.4651 156.764C65.8815 158.378 64.1442 159.239 62.5244 158.737L62.4274 158.705L61.5361 158.395C32.3078 148.169 21.2032 136.93 28.2223 124.68C35.0872 112.698 55.0444 103.974 88.0939 98.5088C88.8309 98.3869 89.5871 98.5287 90.231 98.9094ZM184.066 48.5398C191.017 60.54 188.497 82.3597 176.504 113.999C176.241 114.694 175.746 115.276 175.103 115.645C173.602 116.507 171.698 116.009 170.799 114.538L170.746 114.447L170.185 113.464C165.696 105.613 161.019 98.1626 156.154 91.1111C150.424 82.8068 143.981 74.4001 136.824 65.8908C135.717 64.5744 135.843 62.6205 137.092 61.4584L137.173 61.3853L137.894 60.7619C161.573 40.3543 176.964 36.2803 184.066 48.5398ZM84.1627 41.2369C97.8763 41.2369 115.334 54.3648 136.534 80.6206C137.003 81.2008 137.255 81.927 137.249 82.6743C137.234 84.4151 135.845 85.8205 134.126 85.8582L134.027 85.8589L132.91 85.8509C123.989 85.8023 115.316 86.1151 106.892 86.7895C96.9469 87.5856 86.5625 88.9484 75.7383 90.8778C74.0551 91.1779 72.4421 90.0925 72.0662 88.4272L72.0456 88.3286L71.8662 87.3914C66.0475 56.6218 70.1463 41.2369 84.1627 41.2369Z" fill="#FF4154"/>
<path d="M113.513 96.257H140.895C144.9 96.257 148.599 98.4113 150.592 101.905L164.341 126.001C166.319 129.467 166.319 133.729 164.341 137.196L150.592 161.292C148.599 164.785 144.9 166.94 140.895 166.94H113.513C109.509 166.94 105.81 164.785 103.817 161.292L90.0678 137.196C88.0899 133.729 88.0899 129.467 90.0678 126.001L103.817 101.905C105.81 98.4113 109.509 96.257 113.513 96.257ZM136.722 103.53C140.729 103.53 144.429 105.686 146.422 109.183L156.009 126.006C157.983 129.47 157.983 133.727 156.009 137.19L146.422 154.014C144.429 157.51 140.729 159.667 136.722 159.667H117.687C113.68 159.667 109.98 157.51 107.987 154.014L98.3997 137.19C96.4257 133.727 96.4257 129.47 98.3997 126.006L107.987 109.183C109.98 105.686 113.68 103.53 117.687 103.53H136.722ZM132.224 111.484H122.185C118.182 111.484 114.485 113.637 112.491 117.127L107.425 125.996C105.443 129.465 105.443 133.732 107.425 137.201L112.491 146.069C114.485 149.56 118.182 151.712 122.185 151.712H132.224C136.227 151.712 139.924 149.56 141.918 146.069L146.984 137.201C148.966 133.732 148.966 129.465 146.984 125.996L141.918 117.127C139.924 113.637 136.227 111.484 132.224 111.484ZM127.893 119.098C131.892 119.098 135.587 121.247 137.582 124.734L138.3 125.989C140.288 129.462 140.288 133.735 138.3 137.208L137.582 138.463C135.587 141.95 131.892 144.099 127.893 144.099H126.516C122.516 144.099 118.822 141.95 116.826 138.463L116.108 137.208C114.121 133.735 114.121 129.462 116.108 125.989L116.826 124.734C118.822 121.247 122.516 119.098 126.516 119.098H127.893ZM127.206 126.598C125.426 126.598 123.784 127.551 122.896 129.098C122.007 130.645 122.007 132.552 122.896 134.098C123.784 135.646 125.426 136.598 127.203 136.598C128.983 136.598 130.624 135.646 131.513 134.098C132.402 132.552 132.402 130.645 131.513 129.098C130.624 127.551 128.983 126.598 127.206 126.598ZM86.8741 131.598H95.8242Z" fill="#FFD94C"/>
</svg>

<svg xmlns="http://www.w3.org/2000/svg" width="256" height="256" fill="none"><rect width="256" height="256" fill="#F4F2ED" rx="50"/><path fill="#00435B" d="m153.998 156.283-4.258 7.437a7.18 7.18 0 0 1-6.228 3.621h-32.621a7.18 7.18 0 0 1-6.228-3.621l-4.259-7.437zm11.922-20.821-7.509 13.113h-62.42l-7.508-13.113zm-7.233-20.36 7.245 12.653h-77.46l7.244-12.653zm-15.175-19.247a7.18 7.18 0 0 1 6.228 3.622l4.534 7.918h-54.145l4.534-7.918a7.18 7.18 0 0 1 6.228-3.622z"/><path fill="#002B3B" d="M63.414 92.404c-3.613-17.624-4.389-31.142-2.053-40.958 1.39-5.838 3.929-10.6 7.791-14.036 4.077-3.628 9.232-5.408 15.024-5.408 9.556 0 19.601 4.383 30.335 12.71 4.379 3.395 8.923 7.488 13.643 12.281.375-.486.8-.945 1.273-1.369 13.343-11.96 24.576-19.39 34.185-22.255 5.713-1.703 11.076-1.866 15.961-.212 5.156 1.745 9.264 5.352 12.162 10.406 4.784 8.339 6.045 19.297 4.262 32.828-.727 5.515-1.97 11.522-3.726 18.032q.997.12 1.984.447c16.929 5.643 28.917 11.711 36.175 18.646 4.318 4.126 7.137 8.719 8.157 13.804 1.076 5.367.027 10.75-2.868 15.799-4.775 8.328-13.554 14.895-26.061 20.098q-7.531 3.13-17.052 5.682c.289.657.514 1.356.664 2.089 3.614 17.624 4.39 31.142 2.054 40.958-1.389 5.838-3.929 10.6-7.791 14.036-4.077 3.628-9.232 5.408-15.025 5.408-9.555 0-19.6-4.383-30.335-12.709-4.425-3.432-9.019-7.576-13.793-12.436a10.2 10.2 0 0 1-1.807 2.131c-13.343 11.959-24.576 19.39-34.185 22.255-5.713 1.704-11.076 1.866-15.96.212-5.157-1.745-9.265-5.352-12.163-10.405-4.784-8.34-6.045-19.298-4.262-32.829.753-5.714 2.06-11.957 3.918-18.74a10 10 0 0 1-2.176-.468c-16.93-5.643-28.917-11.711-36.175-18.646-4.318-4.126-7.137-8.719-8.157-13.804-1.076-5.367-.027-10.75 2.869-15.8 4.774-8.327 13.553-14.895 26.06-20.097q7.755-3.224 17.621-5.833a10.4 10.4 0 0 1-.549-1.817"/><path fill="#FF4154" d="M181.46 172.721a3.194 3.194 0 0 1 3.672 2.45l.02.099.18.937q8.728 46.155-12.297 46.154-20.57 0-52.371-39.383a3.22 3.22 0 0 1-.715-2.054 3.204 3.204 0 0 1 3.123-3.184h.099l1.117.007q13.382.073 26.018-.938 14.917-1.194 31.154-4.088M85.2 149.462l.054.091.56.983q6.735 11.776 14.032 22.353 8.595 12.456 19.33 25.22a3.227 3.227 0 0 1-.268 4.433l-.081.073-.72.623q-35.52 30.612-46.173 12.222-10.426-18 7.562-65.459a3.2 3.2 0 0 1 1.4-1.646 3.184 3.184 0 0 1 4.305 1.107m108.276-45.404.097.032.891.31q43.842 15.34 33.314 33.716-10.297 17.972-59.872 26.17a3.18 3.18 0 0 1-2.137-.4 3.224 3.224 0 0 1-1.135-4.398q7.1-12.149 12.79-24.176 6.453-13.64 12.111-29.281a3.19 3.19 0 0 1 3.843-2.001zM90.231 98.909a3.223 3.223 0 0 1 1.135 4.398q-7.1 12.149-12.79 24.176-6.453 13.64-12.11 29.281a3.19 3.19 0 0 1-3.942 1.973l-.097-.032-.89-.31q-43.844-15.34-33.315-33.715 10.297-17.973 59.872-26.171a3.18 3.18 0 0 1 2.137.4m93.835-50.37q10.427 18-7.562 65.46a3.2 3.2 0 0 1-1.401 1.646 3.184 3.184 0 0 1-4.304-1.107l-.053-.091-.561-.983q-6.733-11.776-14.031-22.353-8.595-12.455-19.33-25.22a3.227 3.227 0 0 1 .268-4.433l.081-.073.721-.623q35.519-30.612 46.172-12.222m-99.903-7.302q20.57 0 52.371 39.384c.469.58.721 1.306.715 2.053a3.204 3.204 0 0 1-3.123 3.184h-.099l-1.117-.007q-13.382-.073-26.018.939-14.918 1.194-31.154 4.088a3.195 3.195 0 0 1-3.672-2.45l-.02-.1-.18-.937q-8.728-46.154 12.297-46.154"/><path fill="#FFD94C" d="M113.513 96.257h27.382c4.005 0 7.704 2.154 9.697 5.648l13.749 24.096a11.3 11.3 0 0 1 0 11.195l-13.749 24.096a11.17 11.17 0 0 1-9.697 5.648h-27.382a11.17 11.17 0 0 1-9.696-5.648l-13.75-24.096a11.3 11.3 0 0 1 0-11.195l13.75-24.096a11.17 11.17 0 0 1 9.696-5.648m23.209 7.273c4.007 0 7.707 2.156 9.7 5.653l9.587 16.823a11.3 11.3 0 0 1 0 11.184l-9.587 16.824a11.17 11.17 0 0 1-9.7 5.653h-19.035a11.17 11.17 0 0 1-9.7-5.653L98.4 137.19a11.3 11.3 0 0 1 0-11.184l9.587-16.823a11.17 11.17 0 0 1 9.7-5.653zm-4.498 7.954h-10.039a11.17 11.17 0 0 0-9.694 5.643l-5.066 8.869a11.3 11.3 0 0 0 0 11.205l5.066 8.868a11.17 11.17 0 0 0 9.694 5.643h10.039c4.003 0 7.7-2.152 9.694-5.643l5.066-8.868a11.3 11.3 0 0 0 0-11.205l-5.066-8.869a11.17 11.17 0 0 0-9.694-5.643m-4.331 7.614c3.999 0 7.694 2.149 9.689 5.636l.718 1.255a11.3 11.3 0 0 1 0 11.219l-.718 1.255a11.17 11.17 0 0 1-9.689 5.636h-1.377c-4 0-7.694-2.149-9.69-5.636l-.718-1.255a11.3 11.3 0 0 1 0-11.219l.718-1.255a11.17 11.17 0 0 1 9.69-5.636zm-.687 7.5c-1.78 0-3.422.953-4.31 2.5a5.02 5.02 0 0 0 0 5 4.97 4.97 0 0 0 4.307 2.5c1.78 0 3.421-.952 4.31-2.5a5.02 5.02 0 0 0 0-5 4.97 4.97 0 0 0-4.307-2.5m-40.332 5h8.95Z"/></svg>
